outputs/icons/social/instagram_sharp.svg

<svg xmlns="http://www.w3.org/2000/svg" width="1200" height="1200" fill="none"><g fill="#000" clip-path="url(#a)"><path fill-rule="evenodd" d="M600 343.243a256.76 256.76 0 0 0-237.214 158.502 256.75 256.75 0 0 0-14.61 148.345 256.77 256.77 0 0 0 70.269 131.465 256.8 256.8 0 0 0 131.465 70.27 256.8 256.8 0 0 0 148.345-14.61 256.73 256.73 0 0 0 115.23-94.57A256.73 256.73 0 0 0 856.76 600a256.77 256.77 0 0 0-75.205-181.555A256.75 256.75 0 0 0 600 343.243m0 423.417c-32.96 0-65.185-9.775-92.59-28.085a166.7 166.7 0 0 1-61.384-74.795 166.67 166.67 0 0 1 36.128-181.626 166.64 166.64 0 0 1 85.331-45.612c32.33-6.43 65.84-3.13 96.295 9.484a166.7 166.7 0 0 1 74.795 61.384 166.66 166.66 0 0 1-20.73 210.435A166.66 166.66 0 0 1 600 766.66"/><path d="M926.895 333.105c0 33.138-26.865 60.001-60 60.001-33.14 0-60-26.863-60-60.001s26.86-60 60-60c33.135 0 60 26.863 60 60"/><path fill-rule="evenodd" d="M600 100.039c-135.801 0-152.832.566-206.153 3.008s-89.57 10.879-121.367 23.242a245.2 245.2 0 0 0-88.574 57.695 245.1 245.1 0 0 0-57.656 88.555c-12.364 31.797-20.82 68.144-23.242 121.367S100 464.218 100 600.06c0 135.84.566 152.81 3.008 206.15 2.441 53.34 10.878 89.57 23.242 121.37a255.6 255.6 0 0 0 57.666 88.56 255.6 255.6 0 0 0 88.564 57.67c31.797 12.36 68.145 20.82 121.367 23.24 53.223 2.425 70.313 3.01 206.153 3.01s152.81-.57 206.15-3.01 89.555-10.88 121.37-23.24a255.8 255.8 0 0 0 88.555-57.675 255.8 255.8 0 0 0 57.675-88.555c12.365-31.8 20.8-68.145 23.24-121.37 2.445-53.22 3.01-70.31 3.01-206.15 0-135.842-.585-152.814-3.01-206.154-2.42-53.339-10.875-89.57-23.24-121.367a245.15 245.15 0 0 0-57.675-88.555 245.15 245.15 0 0 0-88.555-57.676c-31.815-12.362-68.165-20.819-121.37-23.242-53.2-2.421-70.37-3.027-206.15-3.027m0 90.058c133.495 0 149.315.509 202.03 2.911 48.83 2.226 75.235 10.371 92.855 17.207a155.1 155.1 0 0 1 57.48 37.402 154.8 154.8 0 0 1 37.4 57.461c6.855 17.578 15 44.082 17.225 92.832 2.405 52.735 2.91 68.536 2.91 202.05s-.505 149.315-2.91 202.05c-2.225 48.83-10.37 75.215-17.225 92.835a165.6 165.6 0 0 1-37.395 57.495 165.6 165.6 0 0 1-57.485 37.405c-17.58 6.835-44.105 14.98-92.855 17.21-52.735 2.4-68.515 2.91-202.03 2.91-133.516 0-149.337-.51-202.051-2.91-48.829-2.23-75.215-10.375-92.832-17.21a165.52 165.52 0 0 1-94.902-94.825c-6.856-17.575-15-44.08-17.208-92.83-2.422-52.735-2.929-68.535-2.929-202.05s.507-149.317 2.929-202.052c2.208-48.828 10.352-75.214 17.208-92.832a154.8 154.8 0 0 1 37.402-57.5 155.3 155.3 0 0 1 57.5-37.402c17.578-6.836 44.082-14.98 92.832-17.207 52.734-2.403 68.535-2.95 202.051-2.95"/></g><defs><clipPath id="a"><path fill="#fff" d="M0 0h1200v1200H0z"/></clipPath></defs></svg>

<svg width="1200" height="1200" viewBox="0 0 1200 1200" fill="none" xmlns="http://www.w3.org/2000/svg"><g clip-path="url(#clip0_788_1980)"><path fill-rule="evenodd" d="M600 343.243C549.22 343.243 499.576 358.301 457.353 386.514C415.13 414.726 382.22 454.826 362.786 501.745C343.353 548.66 338.269 600.285 348.176 650.09C358.083 699.895 382.537 745.645 418.445 781.555C454.354 817.465 500.105 841.915 549.91 851.825C599.715 861.73 651.34 856.645 698.255 837.215C745.175 817.78 785.275 784.87 813.485 742.645C841.7 700.425 856.76 650.78 856.76 600C856.76 531.905 829.705 466.596 781.555 418.445C733.405 370.293 668.095 343.243 600 343.243ZM600 766.66C567.04 766.66 534.815 756.885 507.41 738.575C480.002 720.26 458.641 694.23 446.026 663.78C433.412 633.325 430.112 599.815 436.543 567.485C442.973 535.155 458.845 505.46 482.154 482.154C505.46 458.845 535.155 442.973 567.485 436.542C599.815 430.112 633.325 433.412 663.78 446.026C694.23 458.641 720.26 480.002 738.575 507.41C756.885 534.815 766.66 567.04 766.66 600C766.66 644.2 749.1 686.59 717.845 717.845C686.59 749.1 644.2 766.66 600 766.66Z" fill="black"/><path d="M926.895 333.105C926.895 366.243 900.03 393.106 866.895 393.106C833.755 393.106 806.895 366.243 806.895 333.105C806.895 299.968 833.755 273.105 866.895 273.105C900.03 273.105 926.895 299.968 926.895 333.105Z" fill="black"/><path fill-rule="evenodd" d="M600 100.039C464.199 100.039 447.168 100.605 393.847 103.047C340.527 105.489 304.277 113.926 272.48 126.289C239.112 138.851 208.885 158.541 183.906 183.984C158.476 208.959 138.8 239.179 126.25 272.539C113.886 304.336 105.43 340.683 103.008 393.906C100.585 447.129 100 464.218 100 600.06C100 735.9 100.566 752.87 103.008 806.21C105.449 859.55 113.886 895.78 126.25 927.58C139.093 960.795 158.734 990.96 183.916 1016.14C209.098 1041.325 239.264 1060.965 272.48 1073.81C304.277 1086.17 340.625 1094.63 393.847 1097.05C447.07 1099.475 464.16 1100.06 600 1100.06C735.84 1100.06 752.81 1099.49 806.15 1097.05C859.49 1094.61 895.705 1086.17 927.52 1073.81C960.73 1060.96 990.895 1041.315 1016.075 1016.135C1041.255 990.95 1060.9 960.79 1073.75 927.58C1086.115 895.78 1094.55 859.435 1096.99 806.21C1099.435 752.99 1100 735.9 1100 600.06C1100 464.218 1099.415 447.246 1096.99 393.906C1094.57 340.567 1086.115 304.336 1073.75 272.539C1061.19 239.178 1041.51 208.957 1016.075 183.984C991.1 158.549 960.88 138.866 927.52 126.308C895.705 113.946 859.355 105.489 806.15 103.066C752.95 100.645 735.78 100.039 600 100.039ZM600 190.097C733.495 190.097 749.315 190.606 802.03 193.008C850.86 195.234 877.265 203.379 894.885 210.215C916.595 218.236 936.235 231.017 952.365 247.617C968.97 263.735 981.75 283.37 989.765 305.078C996.62 322.656 1004.765 349.16 1006.99 397.91C1009.395 450.645 1009.9 466.446 1009.9 599.96C1009.9 733.475 1009.395 749.275 1006.99 802.01C1004.765 850.84 996.62 877.225 989.765 894.845C981.45 916.41 968.71 935.995 952.37 952.34C936.025 968.685 916.445 981.425 894.885 989.745C877.305 996.58 850.78 1004.725 802.03 1006.955C749.295 1009.355 733.515 1009.865 600 1009.865C466.484 1009.865 450.663 1009.355 397.949 1006.955C349.12 1004.725 322.734 996.58 305.117 989.745C283.556 981.44 263.974 968.71 247.629 952.38C231.285 936.045 218.54 916.475 210.215 894.92C203.359 877.345 195.215 850.84 193.007 802.09C190.585 749.355 190.078 733.555 190.078 600.04C190.078 466.524 190.585 450.723 193.007 397.988C195.215 349.16 203.359 322.774 210.215 305.156C218.226 283.434 231.007 263.786 247.617 247.656C263.757 231.059 283.402 218.28 305.117 210.254C322.695 203.418 349.199 195.274 397.949 193.047C450.683 190.644 466.484 190.097 600 190.097Z" fill="black"/></g><defs><clipPath id="clip0_788_1980"><path width="24" fill="white" d="M0 0H1200V1200H0V0z"/></clipPath></defs></svg>
